X: 18945
T: Ingonish
R: jig
M: 6/8
K: Edorian
BEE BEB|AFD DFA|BEE BEB|FDF Ad^c|
BEE BEB|AFD DFA|AB^c dAF|EFE E3:|
B2 e efg|fef dBA|B2 e efg|afe d2 A|
B2 e efg|fef dBA|BdB AFD|1 EFE E2 A:|2 EFE E3||

